public/assets/images/icons/white/export/sport.svg

<svg width="16" height="16" xmlns="http://www.w3.org/2000/svg" viewBox="0 0 16 16" shape-rendering="geometricPrecision" fill="#fff"><defs><mask id="a"><rect width="100%" height="100%"/><path d="M13.848-1.1L12.051.695l.286.287A4.455 4.455 0 0 0 9.23 5.236v.987h2.626v-.988c0-.491.191-.954.538-1.302l.03-.03 1.425 1.421 3.212-3.213L13.848-1.1z" fill="#000"/></mask></defs><path d="M13.848-.04l-.736.735.821.821h-.234l-.156.008A3.722 3.722 0 0 0 9.98 5.235v.237h1.126v-.237c0-.691.27-1.343.759-1.833a2.579 2.579 0 0 1 1.833-.759h.3l-.886.887.735.734L16 2.111 13.848-.04z" fill="#cb1800"/><path d="M14.9 9.115c-.443-1.083-.024-2.207-.592-2.207-.113 0-.265.044-.47.142-1.239.59-1.475.708-1.475.708s-2.065-.59-2.36-1.18c-.197-.396-.449-1.005-.914-1.005-.228 0-.506.146-.855.533-1.062 1.18-4.012 1.829-5.487 2.419-1.475.59-1.922 1.664-1.652 2.36.413 1.062 1.71 1.074 1.71 1.074h11.859s.572-2.023.236-2.844zM8.967 6.877l.027.055.059.121c.28.561 1.046 1.059 2.268 1.486L9.448 9.577 7.997 7.631c.372-.224.703-.472.97-.754zm.141 4.02h-.999L6.369 8.4c.228-.088.452-.18.67-.277l2.069 2.774zm-7.023-.396c-.035-.111.132-.62 1.056-.99.362-.145.853-.304 1.373-.472.269-.087.543-.176.819-.269l1.482 2.127H2.823c-.062-.004-.602-.046-.738-.396zm11.737.396h-3.389l-.344-.461 3.562-1.973c.041.325.114.681.265 1.05.067.197.022.767-.094 1.384z" mask="url(#a)"/></svg>

<?xml version="1.0"?><!DOCTYPE svg PUBLIC "-//W3C//DTD SVG 1.1//EN" "http://www.w3.org/Graphics/SVG/1.1/DTD/svg11.dtd"><svg width="16px" height="16px" xmlns="http://www.w3.org/2000/svg" viewBox="0 0 16 16" shape-rendering="geometricPrecision" fill="#fff"><defs><mask id="export-path"><rect fill="#fff" width="100%" height="100%"/><path d="M13.848-1.1l-1.797,1.795l0.286,0.287c-1.812,0.575-3.107,2.263-3.107,4.254v0.987h2.626 V5.235c0-0.491,0.191-0.954,0.538-1.302c0.01-0.01,0.021-0.02,0.03-0.03l1.425,1.421l3.212-3.213L13.848-1.1z" fill="#000"/></mask></defs><path id="export" display="inline" d="M13.848-0.04l-0.736,0.735l0.821,0.821h-0.234 l-0.156,0.008c-1.978,0.084-3.563,1.714-3.563,3.711v0.237h1.126V5.235c0-0.691,0.27-1.343,0.759-1.833 c0.49-0.489,1.141-0.759,1.833-0.759h0.237V2.643h0.063L13.112,3.53l0.735,0.734L16,2.111L13.848-0.04z" fill="#cb1800"/><g mask="url(#export-path)"><path d="M14.9,9.115c-0.443-1.083-0.024-2.207-0.592-2.207c-0.113,0-0.265,0.044-0.47,0.142 c-1.239,0.59-1.475,0.708-1.475,0.708s-2.065-0.59-2.36-1.18C9.806,6.182,9.554,5.573,9.089,5.573 c-0.228,0-0.506,0.146-0.855,0.533c-1.062,1.18-4.012,1.829-5.487,2.419c-1.475,0.59-1.922,1.664-1.652,2.36 c0.413,1.062,1.71,1.074,1.71,1.074h11.859C14.664,11.959,15.236,9.936,14.9,9.115z M8.967,6.877 c0.01,0.02,0.019,0.039,0.027,0.055l0.059,0.121c0.28,0.561,1.046,1.059,2.268,1.486L9.448,9.577L7.997,7.631 C8.369,7.407,8.7,7.159,8.967,6.877z M9.108,10.897H8.109L6.369,8.4c0.228-0.088,0.452-0.18,0.67-0.277L9.108,10.897z M2.085,10.501c-0.035-0.111,0.132-0.62,1.056-0.99c0.362-0.145,0.853-0.304,1.373-0.472C4.783,8.952,5.057,8.863,5.333,8.77 l1.482,2.127H2.823C2.761,10.893,2.221,10.851,2.085,10.501z M13.822,10.897h-3.389l-0.344-0.461l3.562-1.973 c0.041,0.325,0.114,0.681,0.265,1.05C13.983,9.71,13.938,10.28,13.822,10.897z"/></g></svg>
